src/assets/icons/shapes,fancy,outline-star5.svg

<svg width="48" height="48" viewBox="0 0 48 48" fill="none" xmlns="http://www.w3.org/2000/svg">
<path d="M24.439 5.93776L29.0821 14.4516C29.0964 14.4777 29.1116 14.5062 29.128 14.5369C29.2904 14.841 29.5627 15.3509 30.0348 15.6939C30.5069 16.0369 31.0759 16.1383 31.4153 16.1987C31.4495 16.2048 31.4814 16.2105 31.5106 16.216L41.0426 18.001C41.391 18.0662 41.6821 18.1208 41.9339 18.1729C41.7608 18.363 41.5574 18.5783 41.3139 18.8359L34.6516 25.8828C34.6311 25.9044 34.6087 25.9277 34.5846 25.9528C34.3455 26.2012 33.9448 26.6177 33.7644 27.1727C33.5841 27.7276 33.6635 28.3002 33.7109 28.6417C33.7157 28.6761 33.7201 28.7082 33.724 28.7376L34.9718 38.3546C35.0175 38.7062 35.0555 38.9999 35.0838 39.2555C34.8495 39.1496 34.5819 39.0227 34.2616 38.8707L25.5009 34.712C25.4741 34.6993 25.4449 34.6852 25.4136 34.67C25.1035 34.5194 24.5836 34.2669 24 34.2669C23.4164 34.2669 22.8965 34.5194 22.5864 34.67C22.5551 34.6852 22.5259 34.6993 22.4991 34.712L13.7384 38.8707C13.4181 39.0227 13.1505 39.1496 12.9162 39.2555C12.9445 38.9999 12.9825 38.7062 13.0282 38.3546L14.276 28.7376C14.2799 28.7082 14.2843 28.6761 14.2891 28.6416C14.3365 28.3002 14.4159 27.7276 14.2356 27.1727C14.0552 26.6177 13.6545 26.2012 13.4154 25.9528C13.3913 25.9277 13.3689 25.9044 13.3484 25.8828L6.68615 18.8359C6.44257 18.5783 6.23917 18.363 6.06611 18.1729C6.31787 18.1208 6.60896 18.0662 6.95744 18.001L16.4894 16.216C16.5186 16.2105 16.5505 16.2048 16.5847 16.1987C16.9241 16.1383 17.4931 16.0369 17.9652 15.6939C18.4373 15.3509 18.7096 14.841 18.872 14.5369C18.8884 14.5062 18.9036 14.4777 18.9179 14.4516L23.561 5.93776C23.7308 5.6265 23.8727 5.36653 24 5.14319C24.1273 5.36653 24.2692 5.6265 24.439 5.93776ZM42.7541 18.3951C42.754 18.3951 42.7526 18.3944 42.7498 18.3929C42.7528 18.3943 42.7542 18.3951 42.7541 18.3951ZM42.4647 17.5154C42.466 17.5125 42.4668 17.5111 42.4668 17.511C42.4669 17.511 42.4663 17.5125 42.4647 17.5154ZM35.1259 40.1042C35.1258 40.1042 35.1261 40.1025 35.1267 40.0995C35.1262 40.1027 35.1259 40.1043 35.1259 40.1042ZM35.8731 39.5571C35.8762 39.5575 35.8779 39.5578 35.8779 39.5578C35.878 39.5579 35.8764 39.5577 35.8731 39.5571ZM12.1221 39.5578C12.1221 39.5578 12.1238 39.5575 12.1269 39.5571C12.1236 39.5577 12.122 39.5579 12.1221 39.5578ZM12.8733 40.0994C12.8739 40.1025 12.8742 40.1042 12.8741 40.1042C12.8741 40.1043 12.8738 40.1027 12.8733 40.0994ZM5.53315 17.511C5.53321 17.5111 5.53398 17.5125 5.53528 17.5154C5.53374 17.5125 5.53309 17.511 5.53315 17.511ZM5.25018 18.3929C5.24745 18.3944 5.24596 18.3951 5.2459 18.3951C5.24583 18.3951 5.2472 18.3943 5.25018 18.3929ZM24.4648 4.43179C24.4648 4.43185 24.4636 4.43304 24.4613 4.43516C24.4636 4.43278 24.4648 4.43172 24.4648 4.43179ZM23.5387 4.43516C23.5364 4.43304 23.5352 4.43185 23.5352 4.43179C23.5352 4.43172 23.5364 4.43278 23.5387 4.43516Z" stroke="black" stroke-width="3"/>
</svg>

<svg xmlns="http://www.w3.org/2000/svg" width="48" height="48" fill="none" viewBox="0 0 48 48">
  <path stroke="#000" stroke-width="3" d="M24.439 5.938l4.643 8.514.046.085c.162.304.435.814.907 1.157.472.343 1.04.444 1.38.505l.096.017 9.532 1.785c.348.065.64.12.89.172-.172.19-.376.405-.62.663l-6.661 7.047-.067.07c-.24.248-.64.665-.82 1.22-.18.555-.102 1.127-.054 1.469.005.034.01.066.013.096l1.248 9.617c.045.351.084.645.112.9a51.502 51.502 0 01-.822-.384L25.5 34.712a10.345 10.345 0 01-.087-.042c-.31-.15-.83-.403-1.414-.403s-1.104.252-1.414.403l-.087.042-8.76 4.159c-.32.152-.589.279-.823.384.028-.255.066-.549.112-.9l1.248-9.617.013-.096c.047-.342.127-.914-.053-1.47-.18-.554-.582-.97-.82-1.22-.025-.024-.047-.048-.068-.07l-6.662-7.046a50.535 50.535 0 01-.62-.663c.252-.052.543-.107.891-.172l9.532-1.785.096-.017c.34-.06.908-.162 1.38-.505.472-.343.745-.853.907-1.157l.046-.085 4.643-8.514c.17-.311.312-.571.439-.795.127.224.27.484.439.795zm18.315 12.457a.057.057 0 010 0zm-.29-.88l.003-.004-.002.004zm-7.338 22.59a.031.031 0 010 0zm.747-.548a.117.117 0 010 0zm-23.75 0h.004-.005zm.75.542a.033.033 0 010 0zm-7.34-22.588a.06.06 0 010 0zm-.283.882a.053.053 0 010 0zM24.465 4.432a.055.055 0 010 0zm-.926.003a.055.055 0 010 0z"/>
</svg>
